X: 4907
T: Branle, The
R: polka
M: 2/4
K: Gdorian
|:GA BG|AB c2|cB AG|Bc d2|
df ed|cB AG|GA BG|AB c2|
cB AG|Bc d2|cB AG|AF G2:|
d2 de|fg fe|d2 d2|cB AG|
d2 cB|A2 G2|d2 de|fg fe|
d2 d2|cB AG|AF G2||

